X:1
T:The Strayaway Child, pt.1
C:Michael Gorman and Margaret Barry
R:jig
M:6/8
L:1/8
K:Em
A|BEE GEE|B,EE G2A|BEE A2G|FDF Adc|
BEE GEE|B,EE G2A|BcB B2A|GEE E2:|
A|Bee BdB|dBG AGA|Bee BdB|dBG A2A|
Bee BdB|dBG AGA|BcB B2A|GEE E2A|
Bee BdB|dBG AGA|Bee BdB|dBG A2f|
gfe dcB|AGA BGE|AGE DB,D|~E3 E2|]
<abc>
